T: Richard Dwyer's
M: 4/4
L: 1/8
K: Ador
|:A2 EA cdeg | dcBG AE E2| EAcA Bdgf | eaag a3g |
| e3d cA A2 | Bgdc BG G2 |  AEcE dEcd| ecBG EA A2:||
| a2 ea ba a2| g2 dg bg g2 | aged cded | cABG EA A2 |
| a2 ea ba a2 | g3e dBGB | A2 Bd eaaf | gedB eA A2:||
